frontend/src/assets/svgs/coins/jpy.svg

<svg id="Light" enable-background="new 0 0 24 24" height="512" viewBox="0 0 24 24" width="512" xmlns="http://www.w3.org/2000/svg"><path d="m11.342 11h-1.342c-.276 0-.5.224-.5.5s.224.5.5.5h1.5v1h-1.5c-.276 0-.5.224-.5.5s.224.5.5.5h1.5v2.5c0 .276.224.5.5.5s.5-.224.5-.5v-2.5h1.5c.276 0 .5-.224.5-.5s-.224-.5-.5-.5h-1.5v-1h1.5c.276 0 .5-.224.5-.5s-.224-.5-.5-.5h-1.342l2.721-3.175c.18-.209.156-.525-.054-.705-.208-.179-.524-.155-.705.055l-2.62 3.056-2.621-3.056c-.179-.21-.495-.232-.704-.055-.21.18-.235.496-.054.705z"/><path d="m12 23c6.065 0 11-4.935 11-11s-4.935-11-11-11-11 4.935-11 11 4.935 11 11 11zm0-21c5.514 0 10 4.486 10 10s-4.486 10-10 10-10-4.486-10-10 4.486-10 10-10z"/></svg>

<svg viewBox="0 0 24 24" xmlns="http://www.w3.org/2000/svg"><path d="M11.342 11H10a.5.5 0 000 1h1.5v1H10a.5.5 0 000 1h1.5v2.5a.5.5 0 001 0V14H14a.5.5 0 000-1h-1.5v-1H14a.5.5 0 000-1h-1.342l2.721-3.175a.5.5 0 10-.759-.65L12 10.231 9.379 7.175a.499.499 0 10-.758.65z"/><path d="M12 23c6.065 0 11-4.935 11-11S18.065 1 12 1 1 5.935 1 12s4.935 11 11 11zm0-21c5.514 0 10 4.486 10 10s-4.486 10-10 10S2 17.514 2 12 6.486 2 12 2z"/></svg>
